resources/svg/major-folder-down.svg

<svg xmlns="http://www.w3.org/2000/svg" viewBox="0 0 20 20" fill="currentColor"><path fill-rule="evenodd" d="M17.5 19a1.5 1.5 0 0 0 1.5-1.5v-13a1.5 1.5 0 0 0-1.5-1.5h-6.879c-.397 0-.779-.158-1.06-.44l-1.121-1.121a1.503 1.503 0 0 0-1.061-.439h-4.879a1.5 1.5 0 0 0-1.5 1.5v15a1.5 1.5 0 0 0 1.5 1.5h15zm-8.5-7.414-1.293-1.293a1 1 0 0 0-1.414 1.414l3 3a.997.997 0 0 0 1.414 0l3-3a1 1 0 0 0-1.414-1.414l-1.293 1.293v-3.586a1 1 0 0 0-2 0v3.586z"/></svg>

<svg xmlns="http://www.w3.org/2000/svg" viewBox="0 0 20 20" fill="currentColor"><path fill-rule="evenodd" d="M17.5 19a1.5 1.5 0 0 0 1.5-1.5v-13A1.5 1.5 0 0 0 17.5 3h-6.879c-.397 0-.779-.158-1.06-.44L8.44 1.439A1.503 1.503 0 0 0 7.379 1H2.5A1.5 1.5 0 0 0 1 2.5v15A1.5 1.5 0 0 0 2.5 19h15zM9 11.586l-1.293-1.293a1 1 0 0 0-1.414 1.414l3 3a.997.997 0 0 0 1.414 0l3-3a1 1 0 0 0-1.414-1.414L11 11.586V8a1 1 0 0 0-2 0v3.586z"/></svg>
